source/img/sprite.svg

<svg xmlns="http://www.w3.org/2000/svg"
    xmlns:xlink="http://www.w3.org/1999/xlink">
    <symbol id="icon-home" viewBox="0 0 24 24">
        <clipPath id="a">
            <path d="m0 0h24v24h-24z"/>
        </clipPath>
        <g clip-path="url(#a)">
            <path d="m23.4 10.392c-.0007-.0006-.0012-.0013-.0018-.0018l-9.7901-9.789796c-.4173-.417481-.9721-.647279-1.5623-.647279-.5901 0-1.1449.229798-1.5624.647279l-9.78501 9.784796c-.003296.0033-.006775.0068-.009888.0101-.856935.8619-.85547 2.2602.004212 3.1199.392766.393.911316.6204 1.465946.6444.0227.0022.04541.0033.0683.0033h.39001v7.2045c0 1.4258 1.16016 2.5858 2.58601 2.5858h3.8302c.38837 0 .70313-.315.70313-.7032v-5.6484c0-.6506.52939-1.1798 1.17989-1.1798h2.2592c.6506 0 1.1798.5292 1.1798 1.1798v5.6484c0 .3882.3147.7032.7031.7032h3.8302c1.426 0 2.586-1.16 2.586-2.5858v-7.2045h.3618c.59 0 1.1448-.2298 1.5625-.6475.8605-.861.8609-2.2619.0012-3.1234zm-.9957 2.1291c-.1518.1518-.3536.2355-.568.2355h-1.0649c-.3884 0-.7032.3148-.7032.7031v7.9077c0 .6503-.5291 1.1795-1.1797 1.1795h-3.1271v-4.9453c0-1.4258-1.16-2.586-2.586-2.586h-2.2592c-1.42598 0-2.58614 1.1602-2.58614 2.586v4.9453h-3.12708c-.65039 0-1.17975-.5292-1.17975-1.1795v-7.9077c0-.3883-.31476-.7031-.70313-.7031h-1.04663c-.01099-.0007-.02179-.0013-.03296-.0014-.20948-.0037-.40595-.0868-.55317-.2342-.31311-.3131-.31311-.8227 0-1.136.00019 0 .00019-.0002.00037-.0004l.00055-.0005 9.78974-9.78943c.1516-.1518.3532-.23529.5678-.23529.2144 0 .416.08349.5678.23529l9.7876 9.78733c.0015.0015.0031.003.0046.0044.3114.3137.3109.8222-.0015 1.1347z" fill="#2b2d3a"/>
        </g>
    </symbol>
    <symbol id="icon-lamp" viewBox="0 0 24 24">
        <g fill="#2b2d3a">
            <path d="m13.7143 22.7143h-3.4286c-.79999 0-1.71427-.6857-1.71427-2.0571v-2.4c0-1.1429-.57143-2.1715-1.48572-2.9715-2.05714-1.6-3.08571-3.8857-3.08571-6.39997.11429-4.34287 3.65714-7.77144 7.8857-7.88573 2.1714 0 4.2286.8 5.7143 2.28572 1.4857 1.48571 2.4 3.54286 2.4 5.71429 0 2.39999-1.0286 4.68569-2.9714 6.17149-1.0286.8-1.6 2.0571-1.6 3.2v2.6285c0 .9143-.8 1.7143-1.7143 1.7143zm-1.7143-20.57144c-3.65714 0-6.74286 3.08572-6.85714 6.74287 0 2.17147.91428 4.22857 2.62857 5.48577 1.25714 1.0285 1.94286 2.4 1.94286 3.8857v2.4c0 .2285 0 .9143.57141.9143h3.4286c.3428 0 .5714-.2286.5714-.5715v-2.6285c0-1.4858.8-3.0858 2.0572-4.1143 1.6-1.2572 2.5142-3.2 2.5142-5.25719 0-1.82857-.6857-3.54286-2.0571-4.91429-1.2571-1.25715-2.9714-1.94286-4.8-1.94286z"/>
            <path d="m14.8572 19.2857h-5.71424c-.34286 0-.57143-.2286-.57143-.5715 0-.3428.22857-.5714.57143-.5714h5.71424c.3429 0 .5715.2286.5715.5714 0 .3429-.2286.5715-.5715.5715z"/>
        </g>
    </symbol>
    <symbol id="icon-layers" viewBox="0 0 24 24">
        <clipPath id="a">
            <path d="m0 0h24v24h-24z"/>
        </clipPath>
        <g clip-path="url(#a)">
            <path d="m24 12.0001c0-.5706-.3026-1.0905-.8107-1.392l-1.3364-.7862c.5148-.30569.9736-.57835 1.3375-.79486.5071-.30257.8096-.82248.8096-1.39086s-.3026-1.08828-.8096-1.39142c-1.6705-.99348-7.3349-4.35963-10.1272-5.960357-.6467-.3713016-1.4329-.386182-2.1318.003221 0 0-7.59373 4.460326-10.120735 5.956676-.508091.30145-.810665.82135-.810665 1.39188 0 .56838.302574 1.08829.809643 1.39142.363837.21636.822527.48897 1.337217.79451l-1.336143.78599c-.508143.3015-.810717.8214-.810717 1.392 0 .5683.302574 1.0882.809643 1.3914.363837.2163.822527.4889 1.337217.7945l-1.336143.786c-.508143.3015-.810717.8214-.810717 1.3919 0 .5684.302574 1.0883.809643 1.3915 2.161587 1.2853 7.474457 4.4395 10.127157 5.9603.3249.1865.6936.285 1.0632.285.3697 0 .7383-.0985 1.0643-.2855 2.6517-1.5204 7.9645-4.6745 10.1261-5.9604.5071-.3026.8097-.8225.8097-1.3909 0-.5705-.3026-1.0904-.8108-1.3919l-1.3364-.7862c.5149-.3057.9736-.5784 1.3375-.7949.5071-.3026.8096-.8225.8096-1.3908zm-22.6321-3.90865c-.0831-.05006-.27701-.19391-.27701-.45435 0-.26156.19284-.40428.27593-.45332 2.52379-1.49467 10.10688-5.94834 10.10588-5.94783.3473-.1955.7265-.18803 1.0483-.00373 2.7847 1.59642 8.4439 4.95864 10.1111 5.95048.0831.05007.277.19391.277.45435s-.1939.40428-.277.45384c-2.1584 1.28372-7.4648 4.43451-10.1101 5.95051-.3281.1875-.717.1869-1.043.0005-2.64626-1.5165-7.95274-4.66724-10.1111-5.95045zm21.2653 7.81955c.0831.049.2759.1918.2759.4533 0 .2605-.1939.4043-.277.4539-2.1584 1.2837-7.4648 4.4345-10.1101 5.9505-.3281.1875-.717.1869-1.043.0005-2.64626-1.5165-7.95274-4.6673-10.1111-5.9505-.0831-.0501-.27701-.1939-.27701-.4544 0-.2615.19284-.4042.27593-.4533l1.85109-1.0892c2.502 1.483 5.80245 3.4316 7.71889 4.5302.3249.1865.6936.285 1.0632.285.3697 0 .7383-.0985 1.0643-.2855 1.9156-1.0983 5.2158-3.0466 7.7177-4.5298zm-.0011-3.4564c-2.1584 1.2837-7.4648 4.4345-10.1101 5.9504-.3281.1876-.717.187-1.043.0006-2.64626-1.5166-7.95274-4.6673-10.1111-5.9505-.0831-.0501-.27701-.1939-.27701-.4544 0-.2615.19284-.4043.27593-.4533l1.85109-1.0893c2.502 1.4831 5.80245 3.4317 7.71889 4.5303.3249.1865.6936.285 1.0632.285.3697 0 .7383-.0985 1.0643-.2855 1.9156-1.0983 5.2158-3.0466 7.7177-4.5298l1.8512 1.0893c.0831.049.276.1918.276.4533-.0001.2605-.194.4043-.2771.4539z" fill="#2b2d3a"/>
        </g>
    </symbol>
    <symbol id="icon-mail" viewBox="0 0 24 24">
        <g stroke="#397dff" stroke-linecap="round" stroke-linejoin="round">
            <path d="m3.99991 4h15.99999c1.1 0 2 .9 2 2v12c0 1.1-.9 2-2 2h-15.99999c-1.1 0-2-.9-2-2v-12c0-1.1.9-2 2-2z"/>
            <path d="m21.9999 6-10 7-9.99999-7"/>
        </g>
    </symbol>
    <symbol id="icon-mix" viewBox="0 0 68 68">
        <filter id="a" color-interpolation-filters="sRGB" filterUnits="userSpaceOnUse" height="68" width="68" x="0" y="0">
            <feFlood flood-opacity="0" result="BackgroundImageFix"/>
            <feColorMatrix in="SourceAlpha" type="matrix" values="0 0 0 0 0 0 0 0 0 0 0 0 0 0 0 0 0 0 127 0"/>
            <feOffset dx="4" dy="6"/>
            <feGaussianBlur stdDeviation="6"/>
            <feColorMatrix type="matrix" values="0 0 0 0 0.223529 0 0 0 0 0.490196 0 0 0 0 1 0 0 0 0.12 0"/>
            <feBlend in2="BackgroundImageFix" mode="normal" result="effect1_dropShadow"/>
            <feBlend in="SourceGraphic" in2="effect1_dropShadow" mode="normal" result="shape"/>
        </filter>
        <clipPath id="b">
            <path d="m16 14h28v28h-28z"/>
        </clipPath>
        <g filter="url(#a)">
            <rect fill="#397dff" height="44" rx="8" width="44" x="8" y="6"/>
        </g>
        <g clip-path="url(#b)" fill="#fff">
            <path d="m41.4546 14h-22.9091c-1.4039 0-2.5455 1.1416-2.5455 2.5455v22.9091c0 1.4038 1.1416 2.5455 2.5455 2.5455h22.9091c1.4038 0 2.5455-1.1416 2.5455-2.5455v-22.9091c-.0001-1.4039-1.1417-2.5455-2.5455-2.5455zm1.2727 25.4546c0 .7016-.5711 1.2727-1.2727 1.2727h-22.9091c-.7016 0-1.2727-.5711-1.2727-1.2727v-22.9091c0-.7016.5711-1.2727 1.2727-1.2727h22.9091c.7016 0 1.2727.5711 1.2727 1.2727z"/>
            <path d="m31.9096 29.271h-1.2727v-10.8182c0-.3518-.2846-.6364-.6363-.6364-.3518 0-.6364.2846-.6364.6364v10.8182h-1.2727c-.3518 0-.6364.2846-.6364.6363v2.5455c0 .3518.2846.6364.6364.6364h1.2727v4.4546c0 .3517.2846.6364.6364.6364.3517 0 .6363-.2847.6363-.6364v-4.4547h1.2727c.3518 0 .6364-.2846.6364-.6363v-2.5455c0-.3517-.2847-.6363-.6364-.6363zm-.6363 2.5454h-2.5455v-1.2727h2.5455z"/>
            <path d="m39.5464 22.9073h-1.2727v-4.4545c0-.3518-.2847-.6364-.6364-.6364-.3518 0-.6364.2846-.6364.6364v4.4546h-1.2727c-.3518 0-.6364.2846-.6364.6363v2.5455c0 .3518.2846.6364.6364.6364h1.2727v10.8182c0 .3517.2846.6364.6364.6364.3517 0 .6364-.2847.6364-.6364v-10.8183h1.2727c.3517 0 .6363-.2846.6363-.6364v-2.5454c0-.3518-.2846-.6364-.6363-.6364zm-.6364 2.5455h-2.5455v-1.2727h2.5455z"/>
            <path d="m24.2729 21.6346h-1.2727v-3.1818c0-.3518-.2846-.6364-.6364-.6364-.3517 0-.6363.2846-.6363.6364v3.1818h-1.2728c-.3517 0-.6363.2846-.6363.6364v2.5455c0 .3516.2846.6363.6363.6363h1.2728v12.0909c0 .3518.2846.6364.6363.6364.3518 0 .6364-.2846.6364-.6364v-12.0909h1.2727c.3518 0 .6364-.2847.6364-.6364v-2.5455c0-.3517-.2847-.6363-.6364-.6363zm-.6364 2.5455h-2.5454v-1.2727h2.5454z"/>
        </g>
    </symbol>
    <symbol id="icon-phone" viewBox="0 0 24 24">
        <path d="m22 16.9201v3c.0011.2785-.0559.5542-.1675.8093-.1116.2552-.2752.4843-.4804.6726-.2053.1882-.4475.3316-.7114.4208-.2638.0892-.5433.1224-.8207.0973-3.0772-.3344-6.033-1.3859-8.63-3.07-2.41618-1.5353-4.46467-3.5838-6.00001-6-1.69002-2.6088-2.74175-5.57901-3.07-8.67-.02499-.27654.00788-.55524.0965-.81838.08863-.26313.23107-.50493.41827-.71s.41504-.36891.66903-.4811c.25398-.11219.52854-.17026.8062-.17052h3c.48531-.00478.9558.16708 1.32377.48353s.60831.75591.67623 1.23647c.12663.96006.36145 1.90272.7 2.81.13455.35792.16367.74691.08391 1.12088-.07975.37396-.26504.71723-.53391.98912l-1.27 1.27c1.42356 2.5035 3.49641 4.5764 6.00001 6l1.27-1.27c.2719-.2689.6151-.4542.9891-.5339.374-.0798.763-.0506 1.1209.0839.9073.3385 1.8499.5734 2.81.7.4858.0685.9294.3132 1.2465.6875.3172.3743.4857.8521.4735 1.3425z" stroke="#397dff" stroke-linecap="round" stroke-linejoin="round"/>
    </symbol>
    <symbol id="icon-pin" viewBox="0 0 24 24">
        <g stroke="#2b2d3a" stroke-linecap="round" stroke-linejoin="round">
            <path d="m20 10.6667c0 6.2223-8 11.5556-8 11.5556s-8-5.3333-8-11.5556c0-2.12168.84285-4.15652 2.34315-5.65681 1.50029-1.50029 3.53512-2.34314 5.65685-2.34314 2.1217 0 4.1566.84285 5.6569 2.34314 1.5002 1.50029 2.3431 3.53513 2.3431 5.65681z"/>
            <path d="m11.9999 13.3333c1.4728 0 2.6667-1.1939 2.6667-2.6666 0-1.47279-1.1939-2.6667-2.6667-2.6667-1.4727 0-2.66665 1.19391-2.66665 2.6667 0 1.4727 1.19395 2.6666 2.66665 2.6666z"/>
        </g>
    </symbol>
    <symbol id="icon-projects" viewBox="0 0 24 24">
        <path d="m16.122 4.12212c-1.4536-.0053-2.8859.40318-4.122 1.16711-1.2361-.76393-2.66844-1.17241-4.12202-1.16711-4.34482 0-7.87798 3.53316-7.87798 7.87798 0 4.3448 3.53316 7.878 7.87798 7.878 1.45358.0053 2.88592-.4032 4.12202-1.1671 1.2361.7639 2.6684 1.1724 4.122 1.1671 4.3448 0 7.878-3.5332 7.878-7.878 0-4.34482-3.5332-7.87798-7.878-7.87798zm-8.24402 14.70028c-3.76657 0-6.82228-3.0557-6.82228-6.817 0-3.76126 3.05571-6.82227 6.82228-6.82227 1.10876 0 2.20162.26525 3.17772.78515-3.33156 2.79575-3.76658 7.76122-.9708 11.09282.2971.3501.6207.6738.9708.9708-.9761.5199-2.06896.7905-3.17772.7905zm4.12202-1.3952c-2.99735-2.2759-3.58621-6.5518-1.3103-9.54911.3766-.49337.8169-.93369 1.3103-1.31035 2.9973 2.27587 3.5862 6.55176 1.3103 9.54906-.3766.4987-.8169.939-1.3103 1.3104zm4.122 1.3899c-1.1087 0-2.2016-.2653-3.1777-.7852 3.3316-2.7957 3.7666-7.7612.9708-11.0928-.2971-.35014-.6207-.67374-.9708-.97082.9814-.5199 2.069-.79046 3.1777-.78515 3.7666 0 6.817 3.0557 6.817 6.82227 0 3.7666-3.0504 6.817-6.817 6.8117z" fill="#2b2d3a"/>
    </symbol>
    <symbol id="icon-rounds" viewBox="0 0 24 24">
        <g stroke="#2b2d3a" stroke-width="1.2">
            <circle cx="12" cy="5" r="4.4"/>
            <circle cx="5" cy="19" r="4.4"/>
            <circle cx="19" cy="19" r="4.4"/>
        </g>
    </symbol>
</svg>

<svg xmlns="http://www.w3.org/2000/svg" xmlns:xlink="http://www.w3.org/1999/xlink"><defs>
<clipPath id="clip0">
<rect width="24" height="24" fill="white"/>
</clipPath>

<clipPath id="clip0">
<rect width="24" height="24" fill="white"/>
</clipPath>

<filter id="filter0_d" x="0" y="0" width="68" height="68" filterUnits="userSpaceOnUse" color-interpolation-filters="sRGB">
<feFlood flood-opacity="0" result="BackgroundImageFix"/>
<feColorMatrix in="SourceAlpha" type="matrix" values="0 0 0 0 0 0 0 0 0 0 0 0 0 0 0 0 0 0 127 0"/>
<feOffset dx="4" dy="6"/>
<feGaussianBlur stdDeviation="6"/>
<feColorMatrix type="matrix" values="0 0 0 0 0.223529 0 0 0 0 0.490196 0 0 0 0 1 0 0 0 0.12 0"/>
<feBlend mode="normal" in2="BackgroundImageFix" result="effect1_dropShadow"/>
<feBlend mode="normal" in="SourceGraphic" in2="effect1_dropShadow" result="shape"/>
</filter>
<clipPath id="clip0">
<rect width="28" height="28" fill="white" transform="translate(16 14)"/>
</clipPath>
</defs><symbol id="icon-home" viewBox="0 0 24 24">
<g clip-path="url(#clip0)">
<path d="M23.4 10.392C23.3993 10.3914 23.3988 10.3907 23.3982 10.3902L13.6081 0.600404C13.1908 0.182923 12.636 -0.046875 12.0458 -0.046875C11.4557 -0.046875 10.9009 0.182923 10.4834 0.600404L0.69839 10.3852C0.695094 10.3885 0.691615 10.392 0.688502 10.3953C-0.168433 11.2572 -0.166968 12.6555 0.692714 13.5152C1.08548 13.9082 1.60403 14.1356 2.15866 14.1596C2.18136 14.1618 2.20407 14.1629 2.22696 14.1629H2.61697V21.3674C2.61697 22.7932 3.77713 23.9532 5.20298 23.9532H9.03318C9.42155 23.9532 9.73631 23.6382 9.73631 23.25V17.6016C9.73631 16.951 10.2657 16.4218 10.9162 16.4218H13.1754C13.826 16.4218 14.3552 16.951 14.3552 17.6016V23.25C14.3552 23.6382 14.6699 23.9532 15.0583 23.9532H18.8885C20.3145 23.9532 21.4745 22.7932 21.4745 21.3674V14.1629H21.8363C22.4263 14.1629 22.9811 13.9331 23.3988 13.5154C24.2593 12.6544 24.2597 11.2535 23.4 10.392ZM22.4043 12.5211C22.2525 12.6729 22.0507 12.7566 21.8363 12.7566H20.7714C20.383 12.7566 20.0682 13.0714 20.0682 13.4597V21.3674C20.0682 22.0177 19.5391 22.5469 18.8885 22.5469H15.7614V17.6016C15.7614 16.1758 14.6014 15.0156 13.1754 15.0156H10.9162C9.49022 15.0156 8.33006 16.1758 8.33006 17.6016V22.5469H5.20298C4.55259 22.5469 4.02323 22.0177 4.02323 21.3674V13.4597C4.02323 13.0714 3.70847 12.7566 3.3201 12.7566H2.27347C2.26248 12.7559 2.25168 12.7553 2.24051 12.7552C2.03103 12.7515 1.83456 12.6684 1.68734 12.521C1.37423 12.2079 1.37423 11.6983 1.68734 11.385C1.68753 11.385 1.68753 11.3848 1.68771 11.3846L1.68826 11.3841L11.478 1.59467C11.6296 1.44287 11.8312 1.35938 12.0458 1.35938C12.2602 1.35938 12.4618 1.44287 12.6136 1.59467L22.4012 11.382C22.4027 11.3835 22.4043 11.385 22.4058 11.3864C22.7172 11.7001 22.7167 12.2086 22.4043 12.5211Z" fill="#397DFF"/>
</g>

</symbol><symbol id="icon-lamp" viewBox="0 0 24 24">
<path d="M13.7143 22.7143H10.2857C9.48571 22.7143 8.57143 22.0286 8.57143 20.6572V18.2572C8.57143 17.1143 8 16.0857 7.08571 15.2857C5.02857 13.6857 4 11.4 4 8.88573C4.11429 4.54286 7.65714 1.11429 11.8857 1C14.0571 1 16.1143 1.8 17.6 3.28572C19.0857 4.77143 20 6.82858 20 9.00001C20 11.4 18.9714 13.6857 17.0286 15.1715C16 15.9715 15.4286 17.2286 15.4286 18.3715V21C15.4286 21.9143 14.6286 22.7143 13.7143 22.7143ZM12 2.14286C8.34286 2.14286 5.25714 5.22858 5.14286 8.88573C5.14286 11.0572 6.05714 13.1143 7.77143 14.3715C9.02857 15.4 9.71429 16.7715 9.71429 18.2572V20.6572C9.71429 20.8857 9.71429 21.5715 10.2857 21.5715H13.7143C14.0571 21.5715 14.2857 21.3429 14.2857 21V18.3715C14.2857 16.8857 15.0857 15.2857 16.3429 14.2572C17.9429 13 18.8571 11.0572 18.8571 9.00001C18.8571 7.17144 18.1714 5.45715 16.8 4.08572C15.5429 2.82857 13.8286 2.14286 12 2.14286Z" fill="#2B2D3A"/>
<path d="M14.8572 19.2857H9.14296C8.8001 19.2857 8.57153 19.0571 8.57153 18.7142C8.57153 18.3714 8.8001 18.1428 9.14296 18.1428H14.8572C15.2001 18.1428 15.4287 18.3714 15.4287 18.7142C15.4287 19.0571 15.2001 19.2857 14.8572 19.2857Z" fill="#2B2D3A"/>
</symbol><symbol id="icon-layers" viewBox="0 0 24 24">
<g clip-path="url(#clip0)">
<path d="M24 12.0001C24 11.4295 23.6974 10.9096 23.1893 10.6081L21.8529 9.8219C22.3677 9.51621 22.8265 9.24355 23.1904 9.02704C23.6975 8.72447 24 8.20456 24 7.63618C24 7.0678 23.6974 6.5479 23.1904 6.24476C21.5199 5.25128 15.8555 1.88513 13.0632 0.284403C12.4165 -0.0868986 11.6303 -0.101779 10.9314 0.287624C10.9314 0.287624 3.33767 4.74795 0.810665 6.2443C0.302574 6.54575 0 7.06565 0 7.63618C0 8.20456 0.302574 8.72447 0.809643 9.0276C1.17348 9.24396 1.63217 9.51657 2.14686 9.82211L0.810717 10.6081C0.302574 10.9096 0 11.4295 0 12.0001C0 12.5684 0.302574 13.0883 0.809643 13.3915C1.17348 13.6078 1.63217 13.8804 2.14686 14.186L0.810717 14.972C0.302574 15.2735 0 15.7934 0 16.3639C0 16.9323 0.302574 17.4522 0.809643 17.7554C2.97123 19.0407 8.2841 22.1949 10.9368 23.7157C11.2617 23.9022 11.6304 24.0007 12 24.0007C12.3697 24.0007 12.7383 23.9022 13.0643 23.7152C15.716 22.1948 21.0288 19.0407 23.1904 17.7548C23.6975 17.4522 24.0001 16.9323 24.0001 16.3639C24.0001 15.7934 23.6975 15.2735 23.1893 14.972L21.8529 14.1858C22.3678 13.8801 22.8265 13.6074 23.1904 13.3909C23.6975 13.0883 24 12.5684 24 12.0001ZM1.3679 8.09145C1.2848 8.04139 1.09089 7.89754 1.09089 7.6371C1.09089 7.37554 1.28373 7.23282 1.36682 7.18378C3.89061 5.68911 11.4737 1.23544 11.4727 1.23595C11.82 1.04045 12.1992 1.04792 12.521 1.23222C15.3057 2.82864 20.9649 6.19086 22.6321 7.1827C22.7152 7.23277 22.9091 7.37661 22.9091 7.63705C22.9091 7.89749 22.7152 8.04133 22.6321 8.09089C20.4737 9.37461 15.1673 12.5254 12.522 14.0414C12.1939 14.2289 11.805 14.2283 11.479 14.0419C8.83274 12.5254 3.52626 9.37466 1.3679 8.09145ZM22.6332 15.911C22.7163 15.96 22.9091 16.1028 22.9091 16.3643C22.9091 16.6248 22.7152 16.7686 22.6321 16.8182C20.4737 18.1019 15.1673 21.2527 12.522 22.7687C12.1939 22.9562 11.805 22.9556 11.479 22.7692C8.83274 21.2527 3.52626 18.1019 1.3679 16.8187C1.2848 16.7686 1.09089 16.6248 1.09089 16.3643C1.09089 16.1028 1.28373 15.9601 1.36682 15.911L3.21791 14.8218C5.71991 16.3048 9.02036 18.2534 10.9368 19.352C11.2617 19.5385 11.6304 19.637 12 19.637C12.3697 19.637 12.7383 19.5385 13.0643 19.3515C14.9799 18.2532 18.2801 16.3049 20.782 14.8217L22.6332 15.911ZM22.6321 12.4546C20.4737 13.7383 15.1673 16.8891 12.522 18.405C12.1939 18.5926 11.805 18.592 11.479 18.4056C8.83274 16.889 3.52626 13.7383 1.3679 12.4551C1.2848 12.405 1.09089 12.2612 1.09089 12.0007C1.09089 11.7392 1.28373 11.5964 1.36682 11.5474L3.21791 10.4581C5.71991 11.9412 9.02036 13.8898 10.9368 14.9884C11.2617 15.1749 11.6304 15.2734 12 15.2734C12.3697 15.2734 12.7383 15.1749 13.0643 14.9879C14.9799 13.8896 18.2801 11.9413 20.782 10.4581L22.6332 11.5474C22.7163 11.5964 22.9092 11.7392 22.9092 12.0007C22.9091 12.2612 22.7152 12.405 22.6321 12.4546Z" fill="#2B2D3A"/>
</g>

</symbol><symbol id="icon-mail" viewBox="0 0 24 24">
<path d="M3.99991 4H19.9999C21.0999 4 21.9999 4.9 21.9999 6V18C21.9999 19.1 21.0999 20 19.9999 20H3.99991C2.89991 20 1.99991 19.1 1.99991 18V6C1.99991 4.9 2.89991 4 3.99991 4Z" stroke="#397DFF" stroke-linecap="round" stroke-linejoin="round"/>
<path d="M21.9999 6L11.9999 13L1.99991 6" stroke="#397DFF" stroke-linecap="round" stroke-linejoin="round"/>
</symbol><symbol id="icon-mix" viewBox="0 0 68 68">
<g filter="url(#filter0_d)">
<rect x="8" y="6" width="44" height="44" rx="8" fill="#397DFF"/>
</g>
<g clip-path="url(#clip0)">
<path d="M41.4546 14H18.5455C17.1416 14 16 15.1416 16 16.5455V39.4546C16 40.8584 17.1416 42.0001 18.5455 42.0001H41.4546C42.8584 42.0001 44.0001 40.8585 44.0001 39.4546V16.5455C44 15.1416 42.8584 14 41.4546 14ZM42.7273 39.4546C42.7273 40.1562 42.1562 40.7273 41.4546 40.7273H18.5455C17.8439 40.7273 17.2728 40.1562 17.2728 39.4546V16.5455C17.2728 15.8439 17.8439 15.2728 18.5455 15.2728H41.4546C42.1562 15.2728 42.7273 15.8439 42.7273 16.5455V39.4546Z" fill="white"/>
<path d="M31.9096 29.271H30.6369V18.4528C30.6369 18.101 30.3523 17.8164 30.0006 17.8164C29.6488 17.8164 29.3642 18.101 29.3642 18.4528V29.271H28.0915C27.7397 29.271 27.4551 29.5556 27.4551 29.9073V32.4528C27.4551 32.8046 27.7397 33.0892 28.0915 33.0892H29.3642V37.5438C29.3642 37.8955 29.6488 38.1802 30.0006 38.1802C30.3523 38.1802 30.6369 37.8955 30.6369 37.5438V33.0891H31.9096C32.2614 33.0891 32.546 32.8045 32.546 32.4528V29.9073C32.546 29.5556 32.2613 29.271 31.9096 29.271ZM31.2733 31.8164H28.7278V30.5437H31.2733V31.8164Z" fill="white"/>
<path d="M39.5464 22.9073H38.2737V18.4528C38.2737 18.101 37.989 17.8164 37.6373 17.8164C37.2855 17.8164 37.0009 18.101 37.0009 18.4528V22.9074H35.7282C35.3764 22.9074 35.0918 23.192 35.0918 23.5437V26.0892C35.0918 26.441 35.3764 26.7256 35.7282 26.7256H37.0009V37.5438C37.0009 37.8955 37.2855 38.1802 37.6373 38.1802C37.989 38.1802 38.2737 37.8955 38.2737 37.5438V26.7255H39.5464C39.8981 26.7255 40.1827 26.4409 40.1827 26.0891V23.5437C40.1827 23.1919 39.8981 22.9073 39.5464 22.9073ZM38.91 25.4528H36.3645V24.1801H38.91V25.4528Z" fill="white"/>
<path d="M24.2729 21.6346H23.0002V18.4528C23.0002 18.101 22.7156 17.8164 22.3638 17.8164C22.0121 17.8164 21.7275 18.101 21.7275 18.4528V21.6346H20.4547C20.103 21.6346 19.8184 21.9192 19.8184 22.271V24.8165C19.8184 25.1681 20.103 25.4528 20.4547 25.4528H21.7275V37.5437C21.7275 37.8955 22.0121 38.1801 22.3638 38.1801C22.7156 38.1801 23.0002 37.8955 23.0002 37.5437V25.4528H24.2729C24.6247 25.4528 24.9093 25.1681 24.9093 24.8164V22.2709C24.9093 21.9192 24.6246 21.6346 24.2729 21.6346ZM23.6365 24.1801H21.0911V22.9074H23.6365V24.1801Z" fill="white"/>
</g>

</symbol><symbol id="icon-phone" viewBox="0 0 24 24">
<path d="M22 16.9201V19.9201C22.0011 20.1986 21.9441 20.4743 21.8325 20.7294C21.7209 20.9846 21.5573 21.2137 21.3521 21.402C21.1468 21.5902 20.9046 21.7336 20.6407 21.8228C20.3769 21.912 20.0974 21.9452 19.82 21.9201C16.7428 21.5857 13.787 20.5342 11.19 18.8501C8.77382 17.3148 6.72533 15.2663 5.18999 12.8501C3.49997 10.2413 2.44824 7.27109 2.11999 4.1801C2.095 3.90356 2.12787 3.62486 2.21649 3.36172C2.30512 3.09859 2.44756 2.85679 2.63476 2.65172C2.82196 2.44665 3.0498 2.28281 3.30379 2.17062C3.55777 2.05843 3.83233 2.00036 4.10999 2.0001H7.10999C7.5953 1.99532 8.06579 2.16718 8.43376 2.48363C8.80173 2.80008 9.04207 3.23954 9.10999 3.7201C9.23662 4.68016 9.47144 5.62282 9.80999 6.5301C9.94454 6.88802 9.97366 7.27701 9.8939 7.65098C9.81415 8.02494 9.62886 8.36821 9.35999 8.6401L8.08999 9.9101C9.51355 12.4136 11.5864 14.4865 14.09 15.9101L15.36 14.6401C15.6319 14.3712 15.9751 14.1859 16.3491 14.1062C16.7231 14.0264 17.1121 14.0556 17.47 14.1901C18.3773 14.5286 19.3199 14.7635 20.28 14.8901C20.7658 14.9586 21.2094 15.2033 21.5265 15.5776C21.8437 15.9519 22.0122 16.4297 22 16.9201Z" stroke="#397DFF" stroke-linecap="round" stroke-linejoin="round"/>
</symbol><symbol id="icon-pin" viewBox="0 0 24 24">
<path d="M20 10.6667C20 16.889 12 22.2223 12 22.2223C12 22.2223 4 16.889 4 10.6667C4 8.54502 4.84285 6.51018 6.34315 5.00989C7.84344 3.5096 9.87827 2.66675 12 2.66675C14.1217 2.66675 16.1566 3.5096 17.6569 5.00989C19.1571 6.51018 20 8.54502 20 10.6667Z" stroke="#2B2D3A" stroke-linecap="round" stroke-linejoin="round"/>
<path d="M11.9999 13.3333C13.4727 13.3333 14.6666 12.1394 14.6666 10.6667C14.6666 9.19391 13.4727 8 11.9999 8C10.5272 8 9.33325 9.19391 9.33325 10.6667C9.33325 12.1394 10.5272 13.3333 11.9999 13.3333Z" stroke="#2B2D3A" stroke-linecap="round" stroke-linejoin="round"/>
</symbol><symbol id="icon-projects" viewBox="0 0 24 24">
<path d="M16.122 4.12212C14.6684 4.11682 13.2361 4.5253 12 5.28923C10.7639 4.5253 9.33156 4.11682 7.87798 4.12212C3.53316 4.12212 0 7.65528 0 12.0001C0 16.3449 3.53316 19.8781 7.87798 19.8781C9.33156 19.8834 10.7639 19.4749 12 18.711C13.2361 19.4749 14.6684 19.8834 16.122 19.8781C20.4668 19.8781 24 16.3449 24 12.0001C24 7.65528 20.4668 4.12212 16.122 4.12212ZM7.87798 18.8224C4.11141 18.8224 1.0557 15.7667 1.0557 12.0054C1.0557 8.24414 4.11141 5.18313 7.87798 5.18313C8.98674 5.18313 10.0796 5.44838 11.0557 5.96828C7.72414 8.76403 7.28912 13.7295 10.0849 17.0611C10.382 17.4112 10.7056 17.7349 11.0557 18.0319C10.0796 18.5518 8.98674 18.8224 7.87798 18.8224ZM12 17.4272C9.00265 15.1513 8.41379 10.8754 10.6897 7.87809C11.0663 7.38472 11.5066 6.9444 12 6.56774C14.9973 8.84361 15.5862 13.1195 13.3103 16.1168C12.9337 16.6155 12.4934 17.0558 12 17.4272ZM16.122 18.8171C15.0133 18.8171 13.9204 18.5518 12.9443 18.0319C16.2759 15.2362 16.7109 10.2707 13.9151 6.9391C13.618 6.58896 13.2944 6.26536 12.9443 5.96828C13.9257 5.44838 15.0133 5.17782 16.122 5.18313C19.8886 5.18313 22.939 8.23883 22.939 12.0054C22.939 15.772 19.8886 18.8224 16.122 18.8171Z" fill="#2B2D3A"/>
</symbol><symbol id="icon-rounds" viewBox="0 0 24 24">
    <circle cx="12" cy="5" r="4.4" stroke="#2B2D3A" stroke-width="1.2"/>
    <circle cx="5" cy="19" r="4.4" stroke="#2B2D3A" stroke-width="1.2"/>
    <circle cx="19" cy="19" r="4.4" stroke="#2B2D3A" stroke-width="1.2"/>
</symbol></svg>
